X:1
T:[ID 2-17]
T:[ID 2-17]
L:1/8
M:4/4
K:C
V:1 treble 
V:1
 Bezecug adade | %1
"^onigs Quadrille\n[T:Konigs Quadrille [mit Trio%5d][T:In dieser Quelle auch als: K\" g uadg e |] %2
[K:D][M:2/4] dd/d/ de | ff/f/ fg | ad'ad' | a/b/a/g/ f/g/f/e/ | dd/d/ de | ff/f/ fg | aa b/a/g/f/ | %9
 ee/e/ e2 :: ee/e/ ed/e/ | ff Tf2 | c'c'/c'/ c'b/c'/ | d'd'/d'/ Td'2 | bb b/d'/c'/b/ | aa/b/ ag | %16
 f/g/a/b/ a/g/f/e/ | dd/d/ d2 :|[K:G][M:2/4]"^Trio" !fermata![G,DBg]2 d2 | d/e/d/c/ Bc | dgfe | %21
 e2 d2 | c/d/c/B/ AA | B/c/B/A/ GG | A/B/A/G/ FF | GG G2 :: ddde | fffg | aaab | !fermata!c'3 f | %30
 gb/g/ dd | ce/c/ AA | A/B/A/G/ FF | GG G2 :| %34

